X: 2
T: Jackson's
R: reel
M: 4/4
L: 1/8
K: Edor
efed BcdB|ABGB AFGF|E2FA BF~F2|ABdf eB~B2|
!efed BcdB|ABGB AFGF|EFGA (3Bcd ef|1 gefd Beed:|2 gefd Beez|:
!efed Bdeg|fddc dfaf|gfed (3Bcd ed|BdA=c BEE2|
!e3d (3Bcd eg|fd~d2 bdad|baaf gfed|BdA=c BEE2|
!efed Bdeg|fddc dfaf|gfed Bdef|g3a bgef|
!gbef gfeg|fddc d2fa|bgaf gfef|~g3f efgf||


Tune 1311	Setting 14646

